src/assets/clients/norraskog.svg

<svg width="424" height="221" viewBox="0 0 424 221" fill="none" xmlns="http://www.w3.org/2000/svg">
<g clip-path="url(#clip0_1_180)">
<path d="M107.786 120.531C103.386 119.331 97.8859 118.331 91.5859 117.531C87.4859 117.031 84.4859 116.531 82.5859 116.031C80.6859 115.531 79.6859 114.631 79.6859 113.431C79.6859 110.931 83.1859 109.731 90.2859 109.731C98.4859 109.731 105.986 111.631 112.886 115.431L121.786 94.1313C117.786 92.0313 112.986 90.4313 107.286 89.3313C101.586 88.2313 95.7859 87.6313 89.8859 87.6313C81.3859 87.6313 74.0859 88.8313 68.0859 91.2313C61.9859 93.6313 57.4859 96.8313 54.3859 100.831C51.2859 104.831 49.7859 109.331 49.7859 114.431C49.7859 120.831 51.4859 125.731 54.8859 129.131C58.2859 132.531 62.1859 134.831 66.6859 136.031C71.1859 137.231 76.5859 138.231 82.9859 138.931C87.1859 139.431 90.1859 139.931 92.0859 140.331C93.9859 140.831 94.8859 141.631 94.8859 142.931C94.8859 144.131 94.1859 145.131 92.6859 145.731C91.1859 146.331 88.5859 146.631 84.8859 146.631C80.1859 146.631 75.3859 146.031 70.3859 144.731C65.3859 143.531 61.0859 141.731 57.4859 139.631L48.5859 160.931C52.5859 163.231 57.8859 165.031 64.2859 166.531C70.7859 167.931 77.3859 168.631 83.9859 168.631C92.6859 168.631 100.086 167.431 106.186 165.031C112.286 162.631 116.886 159.431 119.886 155.431C122.886 151.431 124.486 147.031 124.486 142.131C124.486 135.731 122.786 130.831 119.386 127.431C116.186 124.131 112.286 121.731 107.786 120.531Z" fill="#CE7F10"/>
<path d="M226.985 89.0313H188.785L166.285 111.831V71.5313C169.485 68.8313 172.285 65.8313 174.485 62.3313C178.385 56.1313 180.285 49.2313 180.285 41.3313C180.285 33.5313 178.385 26.5313 174.485 20.3313C170.585 14.1313 165.185 9.4313 158.285 5.9313C151.385 2.4313 143.485 0.831299 134.785 0.831299C126.085 0.831299 118.285 2.5313 111.385 5.9313C104.485 9.3313 99.0852 14.1313 95.1852 20.3313C91.2852 26.5313 89.2852 33.4313 89.2852 41.3313C89.2852 49.1313 91.2852 56.1313 95.1852 62.3313C99.0852 68.5313 104.485 73.3313 111.385 76.8313C118.085 80.2313 125.585 81.9313 133.885 82.0313V167.431H166.185V148.931L171.385 143.331L190.385 167.331H229.485L194.585 122.931L226.985 89.0313ZM122.085 41.3313C122.085 36.4313 123.285 32.7313 125.685 30.0313C128.085 27.3313 131.085 26.0313 134.885 26.0313C138.585 26.0313 141.685 27.3313 144.085 30.0313C146.485 32.7313 147.685 36.4313 147.685 41.3313C147.685 46.2313 146.485 50.0313 144.085 52.7313C141.685 55.4313 138.685 56.8313 134.885 56.8313C131.185 56.8313 128.085 55.4313 125.685 52.7313C123.285 50.0313 122.085 46.2313 122.085 41.3313Z" fill="#CE7F10"/>
<path d="M305.586 107.131C301.686 100.931 296.286 96.2313 289.386 92.7313C282.486 89.3313 274.586 87.6313 265.886 87.6313C257.186 87.6313 249.386 89.3313 242.486 92.7313C235.586 96.1313 230.186 100.931 226.286 107.131C222.386 113.331 220.386 120.231 220.386 128.131C220.386 135.931 222.386 142.931 226.286 149.131C230.186 155.331 235.586 160.131 242.486 163.631C249.386 167.131 257.186 168.831 265.886 168.831C274.686 168.831 282.486 167.131 289.386 163.631C296.286 160.131 301.686 155.331 305.586 149.131C309.486 142.931 311.386 136.031 311.386 128.131C311.386 120.231 309.486 113.331 305.586 107.131ZM275.086 139.431C272.686 142.131 269.686 143.531 265.886 143.531C262.186 143.531 259.086 142.131 256.686 139.431C254.286 136.731 253.086 132.931 253.086 128.031C253.086 123.131 254.286 119.431 256.686 116.731C259.086 114.031 262.086 112.731 265.886 112.731C269.586 112.731 272.686 114.031 275.086 116.731C277.486 119.431 278.686 123.131 278.686 128.031C278.586 132.931 277.386 136.731 275.086 139.431ZM54.2855 80.5313H86.5855V35.9313C86.5855 24.2313 83.6855 15.4313 77.7855 9.63135C71.9855 3.73135 64.1855 0.831348 54.5855 0.831348C49.8855 0.831348 45.5855 1.63135 41.5855 3.13135C37.5855 4.63135 34.0855 6.93135 30.9855 10.0313V2.33135H0.185547V80.6313H32.4855V43.8313C32.4855 38.4313 33.5855 34.4313 35.8855 31.9313C38.0855 29.4313 41.0855 28.1313 44.6855 28.1313C51.0855 28.1313 54.2855 32.6313 54.2855 41.6313V80.5313ZM220.386 45.8313C220.386 34.5313 225.886 28.9313 236.986 28.9313C239.186 28.9313 241.586 29.1313 244.186 29.5313V0.831348C232.986 0.831348 224.586 4.13135 218.886 10.7313V2.33135H188.086V80.6313H220.386V45.8313ZM285.686 45.8313C285.686 34.5313 291.186 28.9313 302.286 28.9313C304.486 28.9313 306.886 29.1313 309.486 29.5313V0.831348C298.286 0.831348 289.886 4.13135 284.186 10.7313V2.33135H253.386V80.6313H285.686V45.8313ZM351.486 82.2313C362.486 82.2313 370.786 77.0313 375.686 70.8313V80.2313H403.786V2.63135H375.686V12.2313C370.686 6.03135 362.386 0.631348 351.486 0.631348C328.586 0.631348 311.186 18.8313 311.186 41.0313C311.186 62.3313 329.186 82.2313 351.486 82.2313ZM354.086 26.2313C361.586 26.2313 367.786 32.3313 367.786 39.9313C367.786 47.5313 361.686 53.6313 354.086 53.6313C346.586 53.6313 340.386 47.5313 340.386 39.9313C340.386 32.3313 346.586 26.2313 354.086 26.2313ZM365.686 175.431C355.986 175.431 349.886 176.631 344.186 178.931L349.986 167.331C353.986 168.231 358.186 168.731 362.686 168.731C371.486 168.731 379.286 167.031 386.186 163.531C393.086 160.031 398.486 155.231 402.386 149.031C406.286 142.831 408.186 135.931 408.186 128.031C408.186 126.031 408.086 124.031 407.786 122.131L423.386 106.531L403.886 87.0313L393.586 97.3313C391.386 95.6313 388.986 94.0313 386.286 92.6313C379.386 89.2313 371.486 87.5313 362.786 87.5313C354.086 87.5313 346.286 89.2313 339.386 92.6313C332.486 96.0313 327.086 100.831 323.186 107.031C319.286 113.231 317.286 120.131 317.286 128.031C317.286 135.831 319.286 142.831 323.186 149.031C324.086 150.431 324.986 151.631 325.986 152.831L307.186 189.931L325.586 208.331C336.286 203.131 344.586 200.531 357.286 200.531C373.086 200.531 381.186 207.931 385.386 220.231L414.686 211.931C406.686 187.931 388.486 175.431 365.686 175.431ZM353.586 116.831C355.986 114.131 358.986 112.831 362.786 112.831C366.486 112.831 369.586 114.131 371.986 116.831C374.386 119.531 375.586 123.231 375.586 128.131C375.586 133.031 374.386 136.831 371.986 139.531C369.586 142.231 366.586 143.631 362.786 143.631C359.086 143.631 355.986 142.231 353.586 139.531C351.186 136.831 349.986 133.031 349.986 128.131C349.986 123.231 351.186 119.431 353.586 116.831Z" fill="#CE7F10"/>
</g>
<defs>
<clipPath id="clip0_1_180">
<rect width="423.2" height="219.7" fill="white" transform="translate(0.185547 0.631348)"/>
</clipPath>
</defs>
</svg>

<svg xmlns="http://www.w3.org/2000/svg" fill="none" viewBox="0 0 424 221"><g fill="#CE7F10" clip-path="url(#a)"><path d="M107.786 120.531c-4.4-1.2-9.9-2.2-16.2-3-4.1-.5-7.1-1-9-1.5-1.9-.5-2.9-1.4-2.9-2.6 0-2.5 3.5-3.7 10.6-3.7 8.2 0 15.7 1.9 22.6 5.7l8.9-21.3c-4-2.1-8.8-3.7-14.5-4.8-5.7-1.1-11.5-1.7-17.4-1.7-8.5 0-15.8 1.2-21.8 3.6-6.1 2.4-10.6 5.6-13.7 9.6-3.1 4-4.6 8.5-4.6 13.6 0 6.4 1.7 11.3 5.1 14.7 3.4 3.4 7.3 5.7 11.8 6.9 4.5 1.2 9.9 2.2 16.3 2.9 4.2.5 7.2 1 9.1 1.4 1.9.5 2.8 1.3 2.8 2.6 0 1.2-.7 2.2-2.2 2.8-1.5.6-4.1.9-7.8.9-4.7 0-9.5-.6-14.5-1.9-5-1.2-9.3-3-12.9-5.1l-8.9 21.3c4 2.3 9.3 4.1 15.7 5.6 6.5 1.4 13.1 2.1 19.7 2.1 8.7 0 16.1-1.2 22.2-3.6 6.1-2.4 10.7-5.6 13.7-9.6s4.6-8.4 4.6-13.3c0-6.4-1.7-11.3-5.1-14.7-3.2-3.3-7.1-5.7-11.6-6.9Z"/><path d="M226.985 89.031h-38.2l-22.5 22.8v-40.3c3.2-2.7 6-5.7 8.2-9.2 3.9-6.2 5.8-13.1 5.8-21 0-7.8-1.9-14.8-5.8-21-3.9-6.2-9.3-10.9-16.2-14.4-6.9-3.5-14.8-5.1-23.5-5.1s-16.5 1.7-23.4 5.1c-6.9 3.4-12.3 8.2-16.2 14.4-3.9 6.2-5.9 13.1-5.9 21 0 7.8 2 14.8 5.9 21 3.9 6.2 9.3 11 16.2 14.5 6.7 3.4 14.2 5.1 22.5 5.2v85.4h32.3v-18.5l5.2-5.6 19 24h39.1l-34.9-44.4 32.4-33.9Zm-104.9-47.7c0-4.9 1.2-8.6 3.6-11.3 2.4-2.7 5.4-4 9.2-4 3.7 0 6.8 1.3 9.2 4 2.4 2.7 3.6 6.4 3.6 11.3s-1.2 8.7-3.6 11.4c-2.4 2.7-5.4 4.1-9.2 4.1-3.7 0-6.8-1.4-9.2-4.1-2.4-2.7-3.6-6.5-3.6-11.4Z"/><path d="M305.586 107.131c-3.9-6.2-9.3-10.9-16.2-14.4-6.9-3.4-14.8-5.1-23.5-5.1s-16.5 1.7-23.4 5.1c-6.9 3.4-12.3 8.2-16.2 14.4-3.9 6.2-5.9 13.1-5.9 21 0 7.8 2 14.8 5.9 21 3.9 6.2 9.3 11 16.2 14.5 6.9 3.5 14.7 5.2 23.4 5.2 8.8 0 16.6-1.7 23.5-5.2 6.9-3.5 12.3-8.3 16.2-14.5 3.9-6.2 5.8-13.1 5.8-21s-1.9-14.8-5.8-21Zm-30.5 32.3c-2.4 2.7-5.4 4.1-9.2 4.1-3.7 0-6.8-1.4-9.2-4.1-2.4-2.7-3.6-6.5-3.6-11.4s1.2-8.6 3.6-11.3c2.4-2.7 5.4-4 9.2-4 3.7 0 6.8 1.3 9.2 4 2.4 2.7 3.6 6.4 3.6 11.3-.1 4.9-1.3 8.7-3.6 11.4Zm-220.8-58.9h32.3v-44.6c0-11.7-2.9-20.5-8.8-26.3-5.8-5.9-13.6-8.8-23.2-8.8-4.7 0-9 .8-13 2.3-4 1.5-7.5 3.8-10.6 6.9v-7.7H.185v78.3h32.3v-36.8c0-5.4 1.1-9.4 3.4-11.9 2.2-2.5 5.2-3.8 8.8-3.8 6.4 0 9.6 4.5 9.6 13.5v38.9Zm166.1-34.7c0-11.3 5.5-16.9 16.6-16.9 2.2 0 4.6.2 7.2.6V.831c-11.2 0-19.6 3.3-25.3 9.9v-8.4h-30.8v78.3h32.3v-34.8Zm65.3 0c0-11.3 5.5-16.9 16.6-16.9 2.2 0 4.6.2 7.2.6V.831c-11.2 0-19.6 3.3-25.3 9.9v-8.4h-30.8v78.3h32.3v-34.8Zm65.8 36.4c11 0 19.3-5.2 24.2-11.4v9.4h28.1v-77.6h-28.1v9.6c-5-6.2-13.3-11.6-24.2-11.6-22.9 0-40.3 18.2-40.3 40.4 0 21.3 18 41.2 40.3 41.2Zm2.6-56c7.5 0 13.7 6.1 13.7 13.7s-6.1 13.7-13.7 13.7c-7.5 0-13.7-6.1-13.7-13.7s6.2-13.7 13.7-13.7Zm11.6 149.2c-9.7 0-15.8 1.2-21.5 3.5l5.8-11.6c4 .9 8.2 1.4 12.7 1.4 8.8 0 16.6-1.7 23.5-5.2 6.9-3.5 12.3-8.3 16.2-14.5 3.9-6.2 5.8-13.1 5.8-21 0-2-.1-4-.4-5.9l15.6-15.6-19.5-19.5-10.3 10.3c-2.2-1.7-4.6-3.3-7.3-4.7-6.9-3.4-14.8-5.1-23.5-5.1s-16.5 1.7-23.4 5.1c-6.9 3.4-12.3 8.2-16.2 14.4-3.9 6.2-5.9 13.1-5.9 21 0 7.8 2 14.8 5.9 21 .9 1.4 1.8 2.6 2.8 3.8l-18.8 37.1 18.4 18.4c10.7-5.2 19-7.8 31.7-7.8 15.8 0 23.9 7.4 28.1 19.7l29.3-8.3c-8-24-26.2-36.5-49-36.5Zm-12.1-58.6c2.4-2.7 5.4-4 9.2-4 3.7 0 6.8 1.3 9.2 4 2.4 2.7 3.6 6.4 3.6 11.3s-1.2 8.7-3.6 11.4c-2.4 2.7-5.4 4.1-9.2 4.1-3.7 0-6.8-1.4-9.2-4.1-2.4-2.7-3.6-6.5-3.6-11.4s1.2-8.7 3.6-11.3Z"/></g><defs><clipPath id="a"><path fill="#fff" d="M.186.631h423.2v219.7H.186z"/></clipPath></defs></svg>
